X: 2145
T: Aughacashel, The
R: reel
M: 4/4
K: Gmajor
GE|:DEGA BG (3GGG|AGBG AGEG|DEGA Bdef|gedB cBAG|
DEGA BG (3GGG|AGBG AGDC|A,DGB (3ddB EB|dBAB GFGE:|
|:gB (3BcB GABd|EBdB GABG|(3ABA GB AE (3EEE|(3cdc Bc Adef|
gfga bgag|ge (3dBA BGED|EGAB (3ddB eB|1 dBAB GF G2:|2 dBAB G2||

